images/default.svg

<svg width="24" height="24" viewBox="0 0 24 24" fill="none" xmlns="http://www.w3.org/2000/svg">
<path d="M2 11.6799V11.6522C2.25081 8.41663 3.42277 5.98971 5.45874 4.45537C7.46704 2.89336 9.64315 2.14002 12.0138 2.14002C14.4961 2.11235 16.8114 2.9487 18.876 4.62228C20.9682 6.26819 22 8.72278 22 11.9021V12.0976C22 15.3055 20.9682 17.7039 18.876 19.3498C16.7838 21.0234 14.4684 21.8606 11.9862 21.8606H11.8746C9.44767 21.833 7.21623 20.9957 5.15259 19.3221C3.08805 17.6762 2.02856 15.1377 2.00089 11.679L2 11.6799ZM11.3997 2.89336H10.7303C10.5911 3.06116 10.4795 3.25574 10.3679 3.42355C10.2563 3.59135 10.1448 3.75826 10.0332 3.95374C9.92163 4.12154 9.78239 4.34469 9.69849 4.5116C9.58692 4.6794 9.50301 4.84632 9.41911 5.04179C9.25131 5.32117 9.11206 5.59965 9.00049 5.85047C8.86125 6.10128 8.74968 6.35299 8.66577 6.57613C8.83358 6.68771 9.02816 6.82695 9.25131 6.91085C9.50212 6.99475 9.75383 7.07865 10.0046 7.13399C10.284 7.19023 10.5348 7.2179 10.758 7.24557C11.0088 7.27324 11.2319 7.3018 11.3997 7.3018V2.89336ZM12.5717 7.27324C12.7109 7.27324 12.8787 7.30091 13.0457 7.27324C13.2135 7.27324 13.408 7.24557 13.5758 7.217C13.8829 7.16077 14.2453 7.07776 14.5247 6.99386C14.8317 6.88229 15.1102 6.74305 15.3057 6.57524C14.9709 5.76656 14.6086 5.1248 14.2453 4.51071C13.882 3.89661 13.4643 3.36731 13.018 2.92103V2.89336H12.5717V7.27324ZM9.55924 3.14506V3.11739C9.36377 3.2013 9.1683 3.34054 8.94515 3.42444C8.74968 3.50834 8.49886 3.61991 8.30339 3.73149C7.91244 3.92696 7.52238 4.15011 7.13143 4.40092C6.76905 4.65173 6.40577 4.93111 6.09961 5.2096C6.21118 5.32117 6.35043 5.43274 6.462 5.51664C6.57357 5.60055 6.71281 5.71212 6.85295 5.82369C6.96452 5.87992 7.10376 5.96293 7.2439 6.0745C7.38314 6.15841 7.55094 6.26998 7.71786 6.38155C7.941 5.87903 8.16415 5.34973 8.44352 4.87488C8.7229 4.37236 9.02905 3.8984 9.3361 3.47978C9.36377 3.42355 9.39233 3.36821 9.44767 3.31197C9.47534 3.2843 9.50391 3.20129 9.55924 3.14506ZM18.0941 5.2087V5.18103C17.397 4.65084 16.7829 4.20455 16.1697 3.92607C15.5565 3.64758 14.9424 3.36821 14.3845 3.14506C14.8308 3.59135 15.2218 4.14921 15.4726 4.6794C15.752 5.23727 16.0304 5.8228 16.2536 6.38066C16.3652 6.32443 16.5044 6.26909 16.6722 6.15751C16.8114 6.07361 17.0069 5.98971 17.1747 5.9067C17.3425 5.79513 17.4818 5.68355 17.6487 5.57198C17.8165 5.43274 17.9834 5.32117 18.095 5.2096L18.0941 5.2087ZM17.6201 11.4291H20.828C20.828 10.3973 20.6049 9.42078 20.1863 8.41663C19.7953 7.44015 19.2375 6.63147 18.5404 5.93437V5.9067C18.4011 6.12984 18.2057 6.32532 18.0102 6.46456C17.787 6.6038 17.5916 6.71538 17.3684 6.82695C17.2292 6.91085 17.089 7.02242 16.9498 7.07776C16.8106 7.16166 16.6151 7.217 16.4758 7.30091C16.5874 7.52405 16.699 7.77487 16.8106 7.99801C16.8945 8.24882 17.0337 8.5282 17.0899 8.77902C17.2577 9.22531 17.3693 9.69926 17.4809 10.1741C17.5648 10.5927 17.6201 11.039 17.6201 11.4291ZM7.52327 7.30091V7.27324C7.30013 7.16166 7.04932 7.07776 6.85384 6.96619C6.65837 6.82695 6.46289 6.68681 6.29598 6.57524C6.12817 6.49134 5.96126 6.37977 5.82202 6.26819C5.68278 6.15662 5.57121 6.04505 5.45963 5.93348C4.73397 6.63058 4.20467 7.41159 3.86995 8.33273C3.50756 9.25298 3.25586 10.2857 3.14429 11.4014H6.57536C6.57536 10.6204 6.68693 9.86707 6.8824 9.11373C7.05021 8.33273 7.30013 7.7472 7.52327 7.30091ZM11.3997 11.4014V8.19348C11.1766 8.22115 10.8972 8.22115 10.6464 8.19348C10.367 8.16581 10.0885 8.08191 9.83773 7.99801C9.61459 7.94178 9.33521 7.88644 9.11206 7.80254C8.86125 7.7463 8.60954 7.63473 8.41496 7.52316C8.24715 7.80253 8.10791 8.13725 7.99634 8.49964C7.8571 8.83436 7.7732 9.19674 7.68929 9.53146C7.63306 9.86618 7.60539 10.2286 7.57772 10.5356C7.55005 10.8427 7.52149 11.1497 7.52149 11.4005H11.3988L11.3997 11.4014ZM12.5717 8.24972V11.4014H16.6999C16.6999 11.2336 16.6999 11.039 16.6722 10.8159C16.616 10.6204 16.5883 10.3696 16.5606 10.1464C16.4767 9.81173 16.3928 9.44934 16.2813 9.11462C16.1697 8.80758 16.0581 8.50053 15.9189 8.24972C15.8626 8.11047 15.8073 7.94267 15.7511 7.8311C15.6672 7.69186 15.5833 7.60795 15.5279 7.52405C15.2209 7.7472 14.8022 7.88644 14.3006 7.99801C13.8267 8.10958 13.2688 8.22115 12.7663 8.24882H12.5708L12.5717 8.24972ZM6.57446 12.3217H3.14339C3.14339 12.7956 3.2273 13.3258 3.36654 13.9676C3.50578 14.637 3.78516 15.2511 4.0922 15.9205C4.23145 16.2552 4.39925 16.59 4.56616 16.9247C4.76164 17.2317 4.98478 17.5664 5.20793 17.8735C5.37573 17.7619 5.54264 17.678 5.68189 17.5941C5.84969 17.5102 6.04427 17.3986 6.21208 17.3147C6.40755 17.2308 6.60303 17.1469 6.82617 17.0354C7.02165 16.9515 7.27246 16.8399 7.52327 16.7283C7.30013 16.0312 7.04931 15.3618 6.88151 14.6084C6.68604 13.8828 6.57446 13.158 6.57446 12.3493V12.3217ZM11.3997 15.5849V12.3217H7.52238C7.52238 12.5448 7.55005 12.8795 7.60628 13.2142C7.63395 13.549 7.71786 13.9113 7.77409 14.2746C7.88566 14.6656 7.96956 15.0556 8.08114 15.3903C8.19271 15.7251 8.30428 16.0044 8.41585 16.2552C8.91837 16.0598 9.42 15.9205 9.75472 15.8366C10.1171 15.7251 10.4518 15.6412 10.7865 15.6135H11.0936C11.2052 15.5858 11.3167 15.5858 11.4006 15.5858L11.3997 15.5849ZM12.5717 12.3217V15.5573C12.7672 15.5849 12.9903 15.6135 13.2135 15.6412C13.4643 15.6688 13.7713 15.7251 14.0221 15.7804L14.4408 15.8643C14.58 15.9205 14.7478 15.9482 14.887 15.9759C15.0548 16.0321 15.2218 16.0598 15.3896 16.1151C15.5288 16.1713 15.6689 16.199 15.7805 16.2544C16.1429 15.3341 16.366 14.5808 16.5062 13.939C16.6454 13.3249 16.7017 12.7956 16.7017 12.3493V12.3217H12.5717ZM20.828 12.3493V12.3217H17.6201V12.4895C17.5924 13.0197 17.5085 13.6329 17.397 14.2746C17.2854 14.8887 17.0346 15.6135 16.6999 16.5061C17.1462 16.7292 17.5648 16.9524 17.8995 17.1755C18.2342 17.3986 18.5413 17.6495 18.7644 17.8726C19.2384 17.3986 19.657 16.7569 20.0194 15.9196C20.3818 15.111 20.6335 14.2737 20.7727 13.3811C20.8004 13.2133 20.8004 13.0464 20.8289 12.8786V12.3484L20.828 12.3493ZM11.3997 20.8288V16.4775C10.7026 16.5891 10.1162 16.7283 9.66993 16.8399C9.22364 16.9515 8.88892 17.063 8.66577 17.1746C8.83358 17.5932 9.00049 17.9556 9.1683 18.2903C9.3361 18.5974 9.53068 18.9321 9.69849 19.2106C9.75472 19.3221 9.86629 19.4337 9.9493 19.573C10.0332 19.6845 10.0885 19.8238 10.1724 19.9354C10.2563 20.0746 10.3403 20.2424 10.4233 20.4093C10.5348 20.5486 10.6187 20.7164 10.7303 20.8279L11.3997 20.8288ZM12.5717 20.8288H13.2135C13.4643 20.6333 13.716 20.3549 13.9106 20.0478C14.1337 19.7408 14.3845 19.3784 14.5523 19.0713C14.7478 18.7089 14.9433 18.3742 15.1102 18.0395C15.2771 17.7048 15.4172 17.3978 15.5288 17.1746C15.2218 17.063 14.8031 16.9515 14.3854 16.8399C13.9677 16.7283 13.3813 16.6167 12.5726 16.5052V20.8288H12.5717ZM18.0941 18.542V18.5144C18.0378 18.4305 17.9263 18.3189 17.8433 18.235C17.7603 18.1511 17.6201 18.0395 17.4809 17.9556C17.3693 17.8717 17.2301 17.7878 17.0623 17.7048C16.8945 17.6218 16.6713 17.5093 16.4767 17.3978C16.3652 17.6209 16.1697 18.0118 15.8912 18.5411C15.6404 19.0713 15.1941 19.7131 14.6362 20.4102C15.3333 20.2986 15.9474 20.0478 16.5053 19.7131C17.1194 19.4061 17.6487 18.9874 18.095 18.5411L18.0941 18.542ZM7.71786 17.6495V17.6218C7.52238 17.7334 7.21533 17.8726 6.90918 18.0127C6.57446 18.152 6.21208 18.3198 5.87736 18.5429C6.07283 18.7107 6.26831 18.8776 6.43522 18.9892C6.60303 19.1285 6.79761 19.24 6.96541 19.3516C7.27246 19.5471 7.63485 19.7426 7.99723 19.9095C8.35962 20.0764 8.80591 20.2442 9.36377 20.412C9.1683 20.1888 9.02905 19.9095 8.88981 19.6863C8.75057 19.4632 8.58276 19.24 8.44352 19.0169C8.30428 18.7937 8.19271 18.5429 8.08114 18.3198C7.94189 18.0966 7.83032 17.8735 7.71875 17.6503L7.71786 17.6495Z" fill="white"/>
</svg>

<svg width="24" height="24" fill="none" xmlns="http://www.w3.org/2000/svg"><path d="M2 11.68v-.028c.25-3.235 1.423-5.662 3.459-7.197C7.467 2.893 9.643 2.14 12.014 2.14c2.482-.028 4.797.809 6.862 2.482C20.968 6.268 22 8.722 22 11.902v.196c0 3.207-1.032 5.606-3.124 7.252-2.092 1.673-4.408 2.51-6.89 2.51h-.111c-2.427-.027-4.659-.864-6.722-2.538C3.088 17.676 2.029 15.138 2 11.68Zm9.4-8.787h-.67c-.139.168-.25.363-.362.53a9.08 9.08 0 0 0-.335.53c-.111.169-.25.392-.335.559a3.21 3.21 0 0 0-.279.53c-.168.28-.307.558-.419.808a5.56 5.56 0 0 0-.334.726c.168.112.362.251.585.335.251.084.503.168.754.223.279.056.53.084.753.112.25.027.474.056.642.056V2.893Zm1.172 4.38c.139 0 .307.028.474 0 .168 0 .362-.027.53-.056.307-.056.67-.14.949-.223.307-.112.585-.25.78-.419-.334-.808-.696-1.45-1.06-2.064a8.015 8.015 0 0 0-1.227-1.59v-.028h-.446v4.38ZM9.559 3.145v-.028c-.195.084-.39.224-.614.307a6.76 6.76 0 0 0-.642.307c-.39.196-.78.42-1.172.67-.362.25-.725.53-1.031.809.111.111.25.223.362.307.112.084.25.195.391.307.112.056.25.139.39.25.14.084.308.196.475.308.223-.503.446-1.032.726-1.507.279-.503.585-.977.892-1.395a.59.59 0 0 1 .112-.168c.027-.028.056-.11.111-.167Zm8.535 2.064V5.18c-.697-.53-1.311-.976-1.924-1.255-.614-.278-1.228-.558-1.786-.78a5.707 5.707 0 0 1 1.089 1.533c.279.558.557 1.144.78 1.702.112-.057.251-.112.42-.223.138-.084.334-.168.502-.251.168-.112.307-.223.474-.335.168-.14.334-.25.446-.362v-.001Zm-.474 6.22h3.208c0-1.032-.223-2.008-.642-3.012a7.296 7.296 0 0 0-1.646-2.483v-.027a2.022 2.022 0 0 1-.53.558c-.223.139-.418.25-.642.362-.139.084-.279.195-.418.25-.14.085-.335.14-.474.224.111.223.223.474.335.697.084.25.223.53.279.781.168.446.28.92.39 1.395.085.419.14.865.14 1.255ZM7.523 7.301v-.028c-.223-.111-.474-.195-.67-.307-.195-.14-.39-.28-.557-.39a2.75 2.75 0 0 1-.474-.308c-.14-.111-.25-.223-.362-.335-.726.698-1.255 1.479-1.59 2.4a11.54 11.54 0 0 0-.726 3.068h3.431c0-.78.112-1.534.307-2.287A7.457 7.457 0 0 1 7.523 7.3Zm3.877 4.1V8.193a3.426 3.426 0 0 1-.754 0 3.77 3.77 0 0 1-.808-.195c-.223-.056-.503-.112-.726-.195a2.612 2.612 0 0 1-.697-.28c-.168.28-.307.614-.419.977-.139.334-.223.697-.307 1.031-.056.335-.084.698-.111 1.005-.028.307-.057.614-.057.864H11.4v.001Zm1.172-3.151v3.15H16.7c0-.167 0-.362-.028-.585-.056-.196-.084-.446-.111-.67-.084-.334-.168-.697-.28-1.031-.111-.307-.223-.614-.362-.865-.056-.14-.112-.307-.168-.419-.084-.14-.168-.223-.223-.307-.307.223-.726.362-1.227.474-.474.112-1.032.223-1.535.25h-.195v.002Zm-5.998 4.072h-3.43c0 .474.083 1.004.223 1.646.139.669.418 1.283.725 1.953.14.334.307.669.474 1.004.196.307.419.641.642.948.168-.111.335-.195.474-.279.168-.084.362-.195.53-.28a9.94 9.94 0 0 0 .614-.279c.196-.084.446-.195.697-.307-.223-.697-.474-1.366-.641-2.12a8.492 8.492 0 0 1-.308-2.259v-.027Zm4.826 3.263v-3.263H7.522c0 .223.028.558.084.892.028.335.112.697.168 1.06.112.392.196.782.307 1.116.112.335.223.614.335.865a11.527 11.527 0 0 1 1.339-.418 4.893 4.893 0 0 1 1.031-.223h.308c.111-.028.223-.028.307-.028l-.001-.001Zm1.172-3.263v3.235c.195.028.418.056.642.084.25.028.557.084.808.14l.419.083c.139.056.307.084.446.112.168.056.335.084.503.14.139.055.279.083.39.138.363-.92.586-1.673.726-2.315.14-.614.196-1.143.196-1.59v-.027h-4.13Zm8.256.027v-.027H17.62v.168a15.5 15.5 0 0 1-.223 1.785c-.112.614-.362 1.338-.697 2.231.446.223.865.446 1.2.67.334.223.641.474.864.697.474-.474.893-1.116 1.255-1.953a9.87 9.87 0 0 0 .754-2.539c.027-.168.027-.335.056-.502v-.53h-.001ZM11.4 20.83v-4.352c-.697.112-1.284.251-1.73.363-.446.111-.781.223-1.004.335.168.418.334.78.502 1.115.168.307.363.642.53.92.057.112.168.224.251.363.084.111.14.25.223.362.084.14.168.307.251.474.112.14.196.307.307.419h.67Zm1.172 0h.642c.25-.196.502-.474.697-.781.223-.307.473-.67.641-.977.196-.362.391-.697.558-1.032.167-.334.307-.641.419-.864a14.671 14.671 0 0 0-1.144-.335c-.417-.112-1.004-.223-1.812-.335v4.324h-.001Zm5.522-2.287v-.028c-.056-.084-.168-.195-.25-.279a2.03 2.03 0 0 0-.363-.28 2.668 2.668 0 0 0-.419-.25 11.369 11.369 0 0 1-.585-.307c-.112.223-.307.614-.586 1.143-.25.53-.697 1.172-1.255 1.87a5.194 5.194 0 0 0 1.87-.698 6.18 6.18 0 0 0 1.589-1.172v.001ZM7.718 17.65v-.027c-.196.111-.503.25-.809.39a6.16 6.16 0 0 0-1.032.53c.196.169.391.336.558.447.168.14.363.251.53.363.307.195.67.39 1.032.558.363.166.809.334 1.367.502-.196-.223-.335-.502-.474-.726-.14-.223-.307-.446-.446-.67-.14-.222-.251-.473-.363-.696a7.94 7.94 0 0 1-.362-.67h-.001Z" fill="#fff"/></svg>
